img/admin-bar-edit-website.svg

<svg fill="none" height="36" viewBox="0 0 36 36" width="36" xmlns="http://www.w3.org/2000/svg"><rect fill="#1c8aa9" height="36" rx="8" width="36"/><g fill="#fff"><path d="m11.4891 28.0718h2.9037c.3825 0 .6924-.3099.6924-.6924 0-.3824-.3099-.6923-.6924-.6923h-2.9037c-1.0241 0-1.85735-.8609-1.85735-1.9189v-9.8503h16.75405v.4154c0 .3825.3098.6924.6923.6924s.6923-.3099.6923-.6924v-3.5854c0-1.80928-1.508-3.33774-3.2929-3.33774h-12.9884c-1.7876 0-3.24203 1.49737-3.24203 3.33774v13.0205c0 1.8214 1.45443 3.3034 3.24203 3.3034zm-1.85735-16.3239c0-1.0586.85045-1.95327 1.85735-1.95327h12.9884c1.0165 0 1.9083.91267 1.9083 1.95327v1.7854h-16.75405z"/><path d="m24.0318 11.1792h-.277c-.3824 0-.6923.3099-.6923.6923 0 .3825.3099.6924.6923.6924h.277c.3825 0 .6923-.3099.6923-.6924 0-.3824-.3098-.6923-.6923-.6923z"/><path d="m21.6783 11.1792h-.277c-.3824 0-.6923.3099-.6923.6923 0 .3825.3099.6924.6923.6924h.277c.3824 0 .6923-.3099.6923-.6924 0-.3824-.3101-.6923-.6923-.6923z"/><path d="m19.1851 11.1792h-.2769c-.3825 0-.6924.3099-.6924.6923 0 .3825.3099.6924.6924.6924h.2769c.3825 0 .6923-.3099.6923-.6924 0-.3824-.3098-.6923-.6923-.6923z"/><path d="m26.5969 20.8941-2.5226-2.4965.8309-.8322c.2276-.2278.5071-.3418.8387-.3418s.611.114.8381.3418l.831.8322c.2276.2278.3463.5029.3562.825.0098.3222-.099.597-.3265.8245zm-.8607.8767-6.2917 6.3007h-2.5226v-2.5262l6.2917-6.3007z"/></g></svg>

<svg width="36" height="36" viewBox="0 0 36 36" fill="none" xmlns="http://www.w3.org/2000/svg">
<rect width="36" height="36" rx="8" fill="#1C8AA9"/>
<path d="M11.4891 28.0718H14.3928C14.7753 28.0718 15.0852 27.7619 15.0852 27.3794C15.0852 26.997 14.7753 26.6871 14.3928 26.6871H11.4891C10.465 26.6871 9.63175 25.8262 9.63175 24.7682V14.9179H26.3858V15.3333C26.3858 15.7158 26.6956 16.0257 27.0781 16.0257C27.4606 16.0257 27.7704 15.7158 27.7704 15.3333V11.7479C27.7704 9.93862 26.2624 8.41016 24.4775 8.41016H11.4891C9.7015 8.41016 8.24707 9.90753 8.24707 11.7479V24.7684C8.24707 26.5898 9.7015 28.0718 11.4891 28.0718ZM9.63175 11.7479C9.63175 10.6893 10.4822 9.79463 11.4891 9.79463H24.4775C25.494 9.79463 26.3858 10.7073 26.3858 11.7479V13.5333H9.63175V11.7479Z" fill="white"/>
<path d="M24.0318 11.1792H23.7548C23.3724 11.1792 23.0625 11.4891 23.0625 11.8715C23.0625 12.254 23.3724 12.5639 23.7548 12.5639H24.0318C24.4143 12.5639 24.7241 12.254 24.7241 11.8715C24.7241 11.4891 24.4143 11.1792 24.0318 11.1792Z" fill="white"/>
<path d="M21.6783 11.1792H21.4013C21.0189 11.1792 20.709 11.4891 20.709 11.8715C20.709 12.254 21.0189 12.5639 21.4013 12.5639H21.6783C22.0607 12.5639 22.3706 12.254 22.3706 11.8715C22.3706 11.4891 22.0605 11.1792 21.6783 11.1792Z" fill="white"/>
<path d="M19.1851 11.1792H18.9082C18.5257 11.1792 18.2158 11.4891 18.2158 11.8715C18.2158 12.254 18.5257 12.5639 18.9082 12.5639H19.1851C19.5676 12.5639 19.8774 12.254 19.8774 11.8715C19.8774 11.4891 19.5676 11.1792 19.1851 11.1792Z" fill="white"/>
<path d="M26.5969 20.8941L24.0743 18.3976L24.9052 17.5654C25.1328 17.3376 25.4123 17.2236 25.7439 17.2236C26.0755 17.2236 26.3549 17.3376 26.582 17.5654L27.413 18.3976C27.6406 18.6254 27.7593 18.9005 27.7692 19.2226C27.779 19.5448 27.6702 19.8196 27.4427 20.0471L26.5969 20.8941ZM25.7362 21.7708L19.4445 28.0715H16.9219V25.5453L23.2136 19.2446L25.7362 21.7708Z" fill="white"/>
</svg>
